app/assets/images/remix_icon/user/user-voice-line.svg

<svg viewBox="0 0 24 24" xmlns="http://www.w3.org/2000/svg"><path d="M1 22.0001C1 17.5819 4.58172 14.0001 9 14.0001C13.4183 14.0001 17 17.5819 17 22.0001H15C15 18.6864 12.3137 16.0001 9 16.0001C5.68629 16.0001 3 18.6864 3 22.0001H1ZM9 13.0001C5.685 13.0001 3 10.3151 3 7.00014C3 3.68514 5.685 1.00014 9 1.00014C12.315 1.00014 15 3.68514 15 7.00014C15 10.3151 12.315 13.0001 9 13.0001ZM9 11.0001C11.21 11.0001 13 9.21014 13 7.00014C13 4.79014 11.21 3.00014 9 3.00014C6.79 3.00014 5 4.79014 5 7.00014C5 9.21014 6.79 11.0001 9 11.0001ZM21.5476 0.783691C22.4773 2.65664 23 4.76735 23 7.00014C23 9.23293 22.4773 11.3436 21.5476 13.2166L19.9027 12.0203C20.6071 10.493 21 8.79243 21 7.00014C21 5.20785 20.6071 3.50733 19.9027 1.98002L21.5476 0.783691ZM18.2463 3.18464C18.732 4.36038 19 5.64897 19 7.00014C19 8.35131 18.732 9.6399 18.2463 10.8156L16.5694 9.59607C16.8485 8.78206 17 7.90879 17 7.00014C17 6.09149 16.8485 5.21821 16.5694 4.4042L18.2463 3.18464Z"/></svg>

<svg xmlns="http://www.w3.org/2000/svg" viewBox="0 0 24 24">
    <g>
        <path fill="none" d="M0 0h24v24H0z"/>
        <path d="M1 22a8 8 0 1 1 16 0h-2a6 6 0 1 0-12 0H1zm8-9c-3.315 0-6-2.685-6-6s2.685-6 6-6 6 2.685 6 6-2.685 6-6 6zm0-2c2.21 0 4-1.79 4-4s-1.79-4-4-4-4 1.79-4 4 1.79 4 4 4zM21.548.784A13.942 13.942 0 0 1 23 7c0 2.233-.523 4.344-1.452 6.216l-1.645-1.196A11.955 11.955 0 0 0 21 7c0-1.792-.393-3.493-1.097-5.02L21.548.784zm-3.302 2.4A9.97 9.97 0 0 1 19 7a9.97 9.97 0 0 1-.754 3.816l-1.677-1.22A7.99 7.99 0 0 0 17 7a7.99 7.99 0 0 0-.43-2.596l1.676-1.22z"/>
    </g>
</svg>
